packages/icons/src/components/Icon/assets/small-outline/star.svg

<svg width="16" height="16" viewBox="0 0 16 16" fill="none" xmlns="http://www.w3.org/2000/svg">
<path fill-rule="evenodd" clip-rule="evenodd" d="M6.95406 1.69848C7.34141 0.767173 8.66071 0.767173 9.04806 1.69848L10.4134 4.98106L13.9572 5.26516C14.9626 5.34577 15.3703 6.6005 14.6043 7.25668L11.9042 9.56953L12.7291 13.0277C12.9632 14.0088 11.8958 14.7843 11.0351 14.2585L8.00106 12.4054L4.96706 14.2585C4.10628 14.7843 3.03894 14.0088 3.27297 13.0277L4.09787 9.56953L1.39786 7.25668C0.631831 6.6005 1.03951 5.34577 2.04494 5.26516L5.58876 4.98106L6.95406 1.69848L7.64655 1.9865L6.95406 1.69848ZM8.00106 3.08712L6.88788 5.76354C6.72458 6.15615 6.35535 6.42441 5.93149 6.45839L3.04207 6.69004L5.24351 8.5758C5.56644 8.85243 5.70747 9.28648 5.60881 9.70009L4.93624 12.5197L7.40998 11.0087C7.77287 10.7871 8.22926 10.7871 8.59214 11.0087L11.0659 12.5197L10.3933 9.70009C10.2946 9.28648 10.4357 8.85243 10.7586 8.5758L12.96 6.69004L10.0706 6.45839C9.64677 6.42441 9.27754 6.15615 9.11425 5.76354L8.00106 3.08712Z" />
</svg>

<svg xmlns="http://www.w3.org/2000/svg" width="16" height="16" fill="none" viewBox="0 0 16 16">
    <path d="M6.954 1.698c.387-.93 1.707-.93 2.094 0l1.365 3.283 3.544.284c1.006.08 1.413 1.336.647 1.992l-2.7 2.313.825 3.458c.234.98-.833 1.756-1.694 1.23l-3.034-1.853-3.034 1.854c-.86.525-1.928-.25-1.694-1.231l.825-3.458-2.7-2.313c-.766-.656-.358-1.911.647-1.992l3.544-.284zl.693.289zm1.047 1.39L6.888 5.763c-.163.392-.533.66-.957.694l-2.889.232 2.202 1.886c.322.276.463.71.365 1.124l-.673 2.82 2.474-1.511c.363-.222.82-.222 1.182 0l2.474 1.51-.673-2.819a1.13 1.13 0 0 1 .366-1.124L12.96 6.69l-2.89-.232a1.13 1.13 0 0 1-.956-.694z" clip-rule="evenodd"/>
</svg>
